X: 154
T:Avant-deux de Chateaubriant 1
M:6/8
L:1/8
Q:130
C:trad
R:avant-deux
K:G
G2Bddd|e2d AAB|1c2 A dcB|A2GA3:|2c2Ad3|F3G3|
|:G2Bddd|e2d AAB|1c2 A dcB|A2GA3:|2c2Ad3|F3G3|
|:G2BA2G|F2G AAB|1c2A dcB|A2GA3:|2c2Ad3|F3G3|D6||
W:
W: From "Falaleiro" http://home.t-online.de/home/pheld/homepage.htm
